X:1
T: My Former Wife
C:
R:Jig
Q:180
K:Am
M:6/8
L:1/16
E2|E2A2A2 A2B2c2|B2A2G2 c4A2|B2G2E2 E2F2E2|G2E2D2 D2E2D2|E2A2A2 A2B2c2|B2A2B2 G2B2d2|e2d2e2 g2d2B2|B2A2A2 A4E2|
E2A2A2 A2B2c2|B2A2G2 c4A2|B2G2E2 E2F2E2|G2E2D2 D2E2D2|E2A2A2 A2B2c2|B2A2B2 G2B2d2|e2d2e2 g2d2B2|B2A2A2 A4d2|
e2^f2g2 a2b2c'2|b2a2g2 a4g2|e2d2e2 g4a2|g2b2a2 g2e2d2|e2^f2g2 a2b2c'2|b2a2g2 a4g2|e2d2e2 g2d2B2|B2A2A2 A4d2|
e2^f2g2 a2b2c'2|b2a2g2 a4g2|e2d2e2 g4a2|g2b2a2 g2e2d2|e2^f2g2 a2b2c'2|b2a2g2 a4g2|e2d2e2 g2d2B2|B2A2A2 A4||
